image/logo-desktop.svg

<svg viewBox="0 0 364.44 63.81" xmlns="http://www.w3.org/2000/svg" xmlns:xlink="http://www.w3.org/1999/xlink"><linearGradient id="a" gradientUnits="userSpaceOnUse" x1="65.6" x2="35.24" y1="-3.2" y2="65.9"><stop offset="0" stop-color="#14e8d5"/><stop offset="1" stop-color="#964bff"/></linearGradient><linearGradient id="b" gradientUnits="userSpaceOnUse" x2="49.42" y1="31.9" y2="31.9"><stop offset="0" stop-color="#fff25f"/><stop offset="1" stop-color="#ff3c91"/></linearGradient><path d="m28.77 63.81h19.74a2.22 2.22 0 0 0 2-1.07l23.06-60.24c.63-1.18-.42-2.5-2-2.5h-19.73a2.22 2.22 0 0 0 -2 1.07l-23.06 60.24c-.63 1.18.42 2.5 1.99 2.5z" fill="url(#a)"/><path d="m49.42 63.81h-23.07a2.21 2.21 0 0 1 -2-1.07l-24.17-60.25c-.62-1.18.43-2.49 1.99-2.49h19.76a2.21 2.21 0 0 1 2 1.07z" fill="url(#b)"/><g fill="#964bff"><path d="m98.68 47-9.17-21.8c-.94-2.23.1-3.77 2.48-3.77h1.28a3.68 3.68 0 0 1 3.73 2.65l6.51 17 6.49-17a3.7 3.7 0 0 1 3.76-2.64h1.27c2.45 0 3.47 1.56 2.53 3.78l-9.2 21.78a3.74 3.74 0 0 1 -3.77 2.52h-2.09a3.79 3.79 0 0 1 -3.82-2.52z"/><path d="m119.37 35.46c0-9.46 5.28-14.46 12.28-14.46 3.93 0 7.68 2 9.13 5.38v-2.09c0-1.82 1.19-2.86 3.27-2.86h.95a3 3 0 0 1 3.27 3.27v21.49a3 3 0 0 1 -3.27 3.26h-.92c-2.06 0-3.27-1-3.27-2.79v-1.92c-1.42 3.34-5.2 5.29-9.1 5.29-7.02-.03-12.34-5.12-12.34-14.57zm21.64 0c0-5.18-2.88-8.4-7.12-8.4s-7.08 3.21-7.08 8.4 2.87 8.45 7.14 8.45 7.05-3.24 7.05-8.46z"/><path d="m154.1 46.23v-30.67a3 3 0 0 1 3.27-3.27h1a3 3 0 0 1 3.27 3.27v30.67a3 3 0 0 1 -3.27 3.27h-1a3 3 0 0 1 -3.27-3.27z"/><path d="m172 49.5a3 3 0 0 1 -3.27-3.27v-19.18h-1.18a2.68 2.68 0 0 1 -2.94-2.85 2.64 2.64 0 0 1 2.94-2.79h1.18v-1c0-6.38 3.6-9.6 10.67-9.6.72 0 1.53 0 2.25.1 2.24.22 3.11 1.27 2.87 3s-1 2.52-2.63 2.47c-.45 0-.75 0-1.15 0-3 0-4.47 1.33-4.47 4.16v.92h4.17c2.11 0 3.27 1 3.27 2.79s-1.16 2.85-3.27 2.85h-4.14v19.13a3 3 0 0 1 -3.3 3.27z"/><path d="m184.77 35.46c0-10.11 7.23-14.46 14.51-14.46s14.51 4.38 14.51 14.49-7.14 14.51-14.51 14.51-14.51-4.33-14.51-14.54zm21.59 0c0-5.26-2.92-8.4-7.09-8.4s-7.08 3.11-7.08 8.4 2.92 8.45 7.11 8.45 7.06-3.14 7.06-8.46z"/><path d="m245 24.71v21.54a3 3 0 0 1 -3.27 3.27h-.92a2.92 2.92 0 0 1 -3.27-3.17v-1.42c-1.24 2.89-4.45 5-8.67 5-7.55 0-10.9-4.17-10.9-13v-12.22a3 3 0 0 1 3.27-3.27h.91a3 3 0 0 1 3.27 3.27v11.49c0 5.16 1.9 7.53 6.09 7.53s6-2.76 6-7.95v-11.07a3 3 0 0 1 3.27-3.27h.92a3 3 0 0 1 3.3 3.27z"/><path d="m277.89 34.06v12.17a3 3 0 0 1 -3.27 3.27h-.91a3 3 0 0 1 -3.27-3.27v-11.49c0-5.15-1.9-7.53-6.09-7.53s-6 2.77-6 8v11.02a3 3 0 0 1 -3.27 3.27h-.92a3 3 0 0 1 -3.26-3.27v-21.53a3 3 0 0 1 3.26-3.27h.92a2.92 2.92 0 0 1 3.27 3.17v1.4c1.24-2.9 4.45-5 8.67-5 7.52 0 10.87 4.19 10.87 13.06z"/><path d="m282.16 35.46c0-9.46 5.27-14.46 12.27-14.46 3.93 0 7.71 2 9.14 5.38v-10.82a3 3 0 0 1 3.26-3.27h.92a3 3 0 0 1 3.25 3.27v30.63a3 3 0 0 1 -3.27 3.26h-.92c-2.05 0-3.26-1-3.26-2.79v-1.92c-1.43 3.34-5.21 5.29-9.11 5.29-6.96-.03-12.28-5.12-12.28-14.57zm21.63 0c0-5.18-2.84-8.4-7.12-8.4s-7.08 3.21-7.08 8.4 2.87 8.45 7.15 8.45 7.05-3.24 7.05-8.46z"/><path d="m333.46 24.51-.06.54c-.23 2-1.4 2.61-3.43 3-3.71.63-5.63 3.11-5.63 8.25v10a3 3 0 0 1 -3.27 3.27h-.91a3 3 0 0 1 -3.27-3.27v-21.61a3 3 0 0 1 3.27-3.26h.91c2.11 0 3.27 1 3.27 3v1.25a6.68 6.68 0 0 1 6.48-4.54c2 0 2.88 1.25 2.64 3.37z"/><path d="m343.55 55.16 2.45-5.79-10.1-24.16c-.93-2.24.11-3.77 2.5-3.77h1.32a3.67 3.67 0 0 1 3.74 2.66l6.54 17.25 6.5-17.25a3.68 3.68 0 0 1 3.74-2.66h1.26c2.45 0 3.5 1.54 2.58 3.77l-12.75 30.85a3.75 3.75 0 0 1 -3.83 2.52h-1.37c-2.4 0-3.46-1.39-2.58-3.42z"/></g></svg>

<svg xmlns="http://www.w3.org/2000/svg" xmlns:xlink="http://www.w3.org/1999/xlink" viewBox="0 0 364.44 63.81"><defs><style>.cls-1{fill:url(#linear-gradient);}.cls-2{fill:url(#linear-gradient-2);}.cls-3{fill:#964bff;}</style><linearGradient id="linear-gradient" x1="65.6" y1="-3.2" x2="35.24" y2="65.9" gradientUnits="userSpaceOnUse"><stop offset="0" stop-color="#14e8d5"/><stop offset="1" stop-color="#964bff"/></linearGradient><linearGradient id="linear-gradient-2" y1="31.9" x2="49.42" y2="31.9" gradientUnits="userSpaceOnUse"><stop offset="0" stop-color="#fff25f"/><stop offset="1" stop-color="#ff3c91"/></linearGradient></defs><title>2Asset 3</title><g id="Layer_2" data-name="Layer 2"><g id="Layer_1-2" data-name="Layer 1"><path class="cls-1" d="M28.77,63.81H48.51a2.22,2.22,0,0,0,2-1.07L73.57,2.5c.63-1.18-.42-2.5-2-2.5H51.84a2.22,2.22,0,0,0-2,1.07L26.78,61.31C26.15,62.49,27.2,63.81,28.77,63.81Z"/><path class="cls-2" d="M49.42,63.81H26.35a2.21,2.21,0,0,1-2-1.07L.18,2.49C-.44,1.31.61,0,2.17,0H21.93a2.21,2.21,0,0,1,2,1.07Z"/><path class="cls-3" d="M98.68,47l-9.17-21.8c-.94-2.23.1-3.77,2.48-3.77h1.28A3.68,3.68,0,0,1,97,24.08l6.51,17,6.49-17a3.7,3.7,0,0,1,3.76-2.64h1.27c2.45,0,3.47,1.56,2.53,3.78L108.36,47a3.74,3.74,0,0,1-3.77,2.52H102.5A3.79,3.79,0,0,1,98.68,47Z"/><path class="cls-3" d="M119.37,35.46C119.37,26,124.65,21,131.65,21c3.93,0,7.68,2,9.13,5.38V24.29c0-1.82,1.19-2.86,3.27-2.86H145a3,3,0,0,1,3.27,3.27V46.19A3,3,0,0,1,145,49.45h-.92c-2.06,0-3.27-1-3.27-2.79V44.74c-1.42,3.34-5.2,5.29-9.1,5.29C124.69,50,119.37,44.91,119.37,35.46Zm21.64,0c0-5.18-2.88-8.4-7.12-8.4s-7.08,3.21-7.08,8.4,2.87,8.45,7.14,8.45S141,40.67,141,35.45Z"/><path class="cls-3" d="M154.1,46.23V15.56a3,3,0,0,1,3.27-3.27h1a3,3,0,0,1,3.27,3.27V46.23a3,3,0,0,1-3.27,3.27h-1A3,3,0,0,1,154.1,46.23Z"/><path class="cls-3" d="M172,49.5a3,3,0,0,1-3.27-3.27V27.05h-1.18a2.68,2.68,0,0,1-2.94-2.85,2.64,2.64,0,0,1,2.94-2.79h1.18v-1c0-6.38,3.6-9.6,10.67-9.6.72,0,1.53,0,2.25.1,2.24.22,3.11,1.27,2.87,3s-1,2.52-2.63,2.47c-.45,0-.75,0-1.15,0-3,0-4.47,1.33-4.47,4.16v.92h4.17c2.11,0,3.27,1,3.27,2.79s-1.16,2.85-3.27,2.85H176.3V46.23A3,3,0,0,1,173,49.5Z"/><path class="cls-3" d="M184.77,35.46C184.77,25.35,192,21,199.28,21s14.51,4.38,14.51,14.49S206.65,50,199.28,50,184.77,45.67,184.77,35.46Zm21.59,0c0-5.26-2.92-8.4-7.09-8.4s-7.08,3.11-7.08,8.4,2.92,8.45,7.11,8.45S206.36,40.77,206.36,35.45Z"/><path class="cls-3" d="M245,24.71V46.25a3,3,0,0,1-3.27,3.27h-.92a2.92,2.92,0,0,1-3.27-3.17V44.93c-1.24,2.89-4.45,5-8.67,5-7.55,0-10.9-4.17-10.9-13V24.71a3,3,0,0,1,3.27-3.27h.91a3,3,0,0,1,3.27,3.27V36.2c0,5.16,1.9,7.53,6.09,7.53s6-2.76,6-7.95V24.71a3,3,0,0,1,3.27-3.27h.92A3,3,0,0,1,245,24.71Z"/><path class="cls-3" d="M277.89,34.06V46.23a3,3,0,0,1-3.27,3.27h-.91a3,3,0,0,1-3.27-3.27V34.74c0-5.15-1.9-7.53-6.09-7.53s-6,2.77-6,8V46.23a3,3,0,0,1-3.27,3.27h-.92a3,3,0,0,1-3.26-3.27V24.7a3,3,0,0,1,3.26-3.27h.92a2.92,2.92,0,0,1,3.27,3.17V26c1.24-2.9,4.45-5,8.67-5C274.54,21,277.89,25.19,277.89,34.06Z"/><path class="cls-3" d="M282.16,35.46C282.16,26,287.43,21,294.43,21c3.93,0,7.71,2,9.14,5.38V15.56a3,3,0,0,1,3.26-3.27h.92A3,3,0,0,1,311,15.56V46.19a3,3,0,0,1-3.27,3.26h-.92c-2.05,0-3.26-1-3.26-2.79V44.74c-1.43,3.34-5.21,5.29-9.11,5.29C287.48,50,282.16,44.91,282.16,35.46Zm21.63,0c0-5.18-2.84-8.4-7.12-8.4s-7.08,3.21-7.08,8.4,2.87,8.45,7.15,8.45S303.79,40.67,303.79,35.45Z"/><path class="cls-3" d="M333.46,24.51l-.06.54c-.23,2-1.4,2.61-3.43,3-3.71.63-5.63,3.11-5.63,8.25v10a3,3,0,0,1-3.27,3.27h-.91a3,3,0,0,1-3.27-3.27V24.69a3,3,0,0,1,3.27-3.26h.91c2.11,0,3.27,1,3.27,3v1.25a6.68,6.68,0,0,1,6.48-4.54C332.82,21.14,333.7,22.39,333.46,24.51Z"/><path class="cls-3" d="M343.55,55.16,346,49.37l-10.1-24.16c-.93-2.24.11-3.77,2.5-3.77h1.32a3.67,3.67,0,0,1,3.74,2.66L350,41.35l6.5-17.25a3.68,3.68,0,0,1,3.74-2.66h1.26c2.45,0,3.5,1.54,2.58,3.77L351.33,56.06a3.75,3.75,0,0,1-3.83,2.52h-1.37C343.73,58.58,342.67,57.19,343.55,55.16Z"/></g></g></svg>
